X: 118
T:A Farruquiña (continuación)
M:6/8
L:1/8
Q:200
K:C
{B,}C2AG FGFE |DAGF EFED |C2FE DEDC| B,FED "~"F2E2- | C2AG FGFE |DAGF EF
ED |C2FE DEDC |1 B,FED {B,}C4- | C2AG FGFE :|2 B,FED {B,}C4- | C8 ||

